X: 67
M:C|
L:1/8
K:G
ud|\
|:ua|\
bgfg (eg)(dg) | cgBg aAAa | bgfg (eg)(dg) | efga (bg)(ga) |
(bg)(fg) (eg)(dg) | (cg)(Bg) (aA)(Ac) | BGcA dBge | dBcA (BG)G:|


